!!!COM: Music21
!!!OTL: jig_Recruiting-Officer--The
!!!OMV: jig_Recruiting-Officer--The
**kern
*clefG2
*k[f#c#]
*D:
*M6/8
=1
8a
=||
8.ddL
16eeK
8ff#J
8eeL
8dd
8cc#J
=
8.ddL
16cc#K
8bJ
8aL
8g
8f#J
=
8.gL
16aK
8bJ
8aL
8g
8f#J
=
4e
8e
4e
8a
=
8.ddL
16eeK
8ff#J
8eeL
8dd
8cc#J
=
16bKL
8.dd
8bJ
4a
8g
!!linebreak:original
=
8f#L
8dd
8f#J
4e
8cc#
=
4.dd
8dd
8r
8a
=||
8.ddL
16eeK
8ff#J
8eeL
8dd
8cc#J
=
8.ddL
16cc#K
8bJ
8aL
8g
8f#J
=
8.gL
16aK
8bJ
8aL
8g
8f#J
=
4e
8e
4e
8a
!!linebreak:original
=
8.ddL
16eeK
8ff#J
8eeL
8dd
8cc#J
=
16bKL
8.dd
8bJ
4a
8g
=
8f#L
8dd
8f#J
4e
8cc#
=
4.dd
8dd
8r
8dd
=||
8.ff#L
16ggK
8aaJ
8aaL
8ff#
8ddJ
=
4.ff#
4aa
8cc#
=
8.bL
16cc#K
8ddJ
4ee
8ee
!!linebreak:original
=
8ff#L
8ee
8ddJ
4cc#
8a
=
8aaL
8ff#
8ddJ
8eeL
8cc#
8aJ
=
16bLL
16cc#J
8dd
8bJ
4a
8f#
=
8.gL
16f#K
8eJ
8dL
8dd
8cc#J
=
4.dd
8dd
8r
8dd
=||
*M6/8
8a
!!linebreak:original
=||
8.ddL
16eeK
8ff#J
8eeL
8dd
8cc#J
=
8.ddL
16cc#K
8bJ
8aL
8g
8f#J
=
8.gL
16aK
8bJ
8aL
8g
8f#J
=
4e
8e
4e
8a
=
8.ddL
16eeK
8ff#J
8eeL
8dd
8cc#J
=
16bKL
8.dd
8bJ
4a
8g
!!linebreak:original
=
8f#L
8dd
8f#J
4e
8cc#
=
4.dd
8dd
8r
8a
=||
8.ddL
16eeK
8ff#J
8eeL
8dd
8cc#J
=
8.ddL
16cc#K
8bJ
8aL
8g
8f#J
=
8.gL
16aK
8bJ
8aL
8g
8f#J
=
4e
8e
4e
8a
!!linebreak:original
=
8.ddL
16eeK
8ff#J
8eeL
8dd
8cc#J
=
16bKL
8.dd
8bJ
4a
8g
=
8f#L
8dd
8f#J
4e
8cc#
=
4.dd
8dd
8r
8dd
=||
8.ff#L
16ggK
8aaJ
8aaL
8ff#
8ddJ
=
4.ff#
4aa
8cc#
=
8.bL
16cc#K
8ddJ
4ee
8ee
!!linebreak:original
=
8ff#L
8ee
8ddJ
4cc#
8a
=
8aaL
8ff#
8ddJ
8eeL
8cc#
8aJ
=
16bLL
16cc#J
8dd
8bJ
4a
8f#
=
8.gL
16f#K
8eJ
8dL
8dd
8cc#J
=
4.dd
8dd
8r
8dd
=||
*-
